X:1
T:Title
%%score ( 1 2 ) ( 3 4 )
L:1/8
Q:1/4=103
M:6/8
K:Bb
V:1 treble nm="Grand Piano, Soprano"
V:2 treble 
V:3 bass nm="Choir Pad, Martinique, CMD"
V:4 bass 
V:1
 [DF] [DB]2 [DF][DF][_D=E] | [DF] [FA]2 [EG] [EG]2 | [EG] [DF]2 [DF] [EG]2 | %3
w: By~Willard~P.~Morris,~1895 * * * *|||
 [CE] [B,D]2- [B,D]2- [B,D]/ z/ | [DF] [DB]2 [DF][DF][_D=E] | [DF] [FA]2 [EG] [EG]2 | %6
w: |||
 [EG] [DF]2 [DF] [EG]2 | [EA] [DB]2- [DB]2- [DB]/ z/ | [DB] [Ec]2 [Ec]AG | [EA] [DB]2 [Ec] [Fd]2 | %10
w: ||||
 [DB] [EG]2 [FB] [Fe]2 | [Fd] d2- d c2 | [Fc] [Fd]2 [Ec] [DB]2 | [DF] [FA]2 [EG] [EG]2 | %14
w: ||||
 [Gc] [FB]2 [FB]AG | [EA] [DB]2- [DB]3- | [DB]3 z3 |] %17
w: |||
V:2
 x6 | x6 | x6 | x6 | x6 | x6 | x6 | x6 | z3 z E2 | x6 | x6 | z F2- F2- F/ z/ | x6 | x6 | z3 z E2 | %15
 x6 | x6 |] %17
V:3
 [B,,B,] [B,,F,]2 [B,,B,] [B,,B,]2 | [B,,B,] [E,B,]2 [E,B,] [E,B,]2 | %2
 [E,B,] [F,B,]2 [F,B,] [F,A,]2 | F, [B,,F,]2- [B,,F,]2- [B,,F,]/ z/ | %4
 [B,,B,] [B,,F,]2 [B,,B,] [B,,B,]2 | [B,,B,] [E,B,]2 [E,B,] [E,B,]2 | %6
 [E,B,] [F,B,]2 [F,B,] [F,A,]2 | F, [B,,F,]2- [B,,F,]2- [B,,F,]/ z/ | %8
 [B,,F,] [F,A,]2 [F,A,] [F,C]2 | [F,C] B,2 B, B,2 | [B,,B,] [E,B,]2 [D,B,] [C,A,]2 | %11
 z B,2- B, z z | [F,A,] [B,,B,]2 [B,,F,] [B,,F,]2 | [B,,B,] [E,B,]2 [E,B,] [E,B,]2 | %14
 [E,E] [F,D]2 [F,D] [F,C]2 | [F,C] [B,,B,]2- [B,,B,]3- | [B,,B,]3 z3 |] %17
V:4
 x6 | x6 | x6 | x6 | x6 | x6 | x6 | x6 | x6 | x6 | x6 | [B,,B,] F,2- F,-[F,A,-]>A, | x6 | x6 | x6 | %15
 x6 | x6 |] %17

